X:1
T: Casey the Whistler
C:
R:Reel
Q: 232
K:G
M:4/4
L:1/8
|:Ad dB cB AG|((3ABc) GF EF G2|Ad dB cB AG|((3ABc) GE ED D2|
Ad dB cB AG|((3ABc) GF EF G2|Ad dB cB AG|((3ABc) GE ED D2|
FE FG AB cA|d2 dc AG FD|FE FG AB cA|d2 cA G2 AG|
FE FG AB cA|d2 dc AB c2|((3ded) cA G2 FG|((3ABc) Bd cA GE:|
